X:1
T:18 - Qui habet mandata mea
T:Gregor Aichinger (1564 - 1628) 2º Libro Sacrae Cantiones a 4, 5, 6, 8 et 10 vocum (Venetia, 1595)
T:18 - Qui habet mandata mea
T:© 2017 Ed. Marcos Mato
T:© 2017 Ed. Marcos Mato
T:© 2017 Ed. Marcos Mato
T:© 2017 Ed. Marcos Mato
T:© 2017 Ed. Marcos Mato
T:© 2017 Ed. Marcos Mato
C:Gregor Aichinger (1564 - 1628)
C:2º Libro Sacrae Cantiones a 4, 5, 6, 8 et 10 vocum (Venetia, 1595)
Z:© 2017 Ed. Marcos Mato
%%score [ 1 2 3 4 ]
L:1/8
M:4/4
K:F
V:1 treble nm="Soprano" snm="S."
V:2 alto2 nm="Alto" snm="A."
V:3 alto transpose=-12 nm="Tenor" snm="T."
V:4 bass3 nm="Basso" snm="B."
V:1
 c4 | [Eg]2 |[M:4/2] c8 d8 | f8 z4 f4 | e4 c4 d8 | c4 f4 d4 e4 | f4 e2 d2 e8 | d8 c8 | z16 | z16 | %10
w: ||Qui ha-|bet man-|da- ta me-|a, et ser- vat|e- * * *|* a,|||
 z8 z4 f4 | d4 e4 f8 | e4 c4 f4 e2 d2 | c4 A4 B4 A4- | A2 G2 A2 B2 c8 | z16 | c8 d8 | f4 f4 e4 c4 | %18
w: man-|da- ta me-|a, et ser- * *|* vat e- *|* * * * a,||qui ha-|bet man- da- ta|
 d8 c8- | c8 z8 | F8 A8 | c8 z4 B4 | A4 F4 G6 A2 | B4 A8 F4 | A8 c8 | z4 f4 e4 c4 | d8 c8 | %27
w: me- a,|_|qui ha-|bet man-|da- ta me- *|* a, qui|ha- bet|man- da- ta|me- a,|
 z4 c4 A4 B4 | c8 A8 | z8 A8 | c8 z8 | G8 c8 | G4 A6 c2 =B4 | c16 | z8 c8- | c8 f4 f4- | %36
w: et ser- vat|e- a|hic|est,|hic est|qui di- li- git|me,|hic|_ est qui|
 f2 ed e2 f2 g4 f4- | f2 e2 d4 e8 | c8 c6 c2 | A4 d4 G4 c4- | c4 d4 d2 c2 c4 | c16 | z4 F4 G4 A4- | %43
w: _ _ _ _ _ _ di-|* li- git me,|qui di- li-|git me, hic est|_ qui di- li- git|me,|di- cit Do-|
 A4 F4 c8 | B4 A8 G2 F2 | E4 A4 G8 | z16 | z8 z4 c4- | c4 d4 e4 c4 | f6 e2 d4 d4 | c4 B4 c4 f4 | %51
w: * mi- nus|om- ni- * *|* po- tens.||Di-|* cit Do- mi-|nus _ _ om-|ni- po- tens, om-|
 e4 d6 c2 c4- | c4 =B4 c8- | c8 z8 | z16 | z4 c8 d4 | e4 c4 f4 f4 | e8 d8 | c8 z8 | A12 B4 | %60
w: ni- * * *|* po- tens,|_||di- cit|Do- mi- nus om-|ni- po-|tens,|di- cit|
 c4 A4 d4 f4- | f4 e4 d4 d4 | c12 G4 | A4 B4 c8- | c4 c4 A4 d4- | d4 c2 B2 A4 d4 | c4 B4 d6 d2 | %67
w: Do- mi- nus, di-|* cit Do- mi-|nus om-|ni- po- tens,|_ di- cit Do-|* * * * mi-|nus om- ni- po-|
 c16 |] %68
w: tens.|
V:2
 F4 | [Cc]2 |[M:4/2] z16 | F8 A8 | c8 z4 B4 | A4 F4 G8 | F4 B4 G4 A4 | B4 A6 G2 A2 B2 | %8
w: |||Qui ha-|bet man-|da- ta me-|a, et ser- vat|e- * * * *|
 c6 BA G4 A4 | B4 G4 A8 | B8 A8 | z4 G4 F4 D4 | G4 A6 GF G4 | A8 z8 | z8 z4 c4 | B4 G4 A4 F4 | %16
w: * * * a, et|ser- vat e-|* a,|man- da- ta|me- * * * *|a,|man-|da- ta me- a,|
 A4 G8 F4- | F4 E2 D2 E8 | F6 G2 A6 GF | E2 F2 G8 F4 | D4 F8 E2 D2 | C4 F4 D2 E2 F2 D2 | %22
w: et ser- *||vat _ _ _ _|_ _ _ e-|a, et _ _|_ ser- vat _ _ _|
 E4 F6 ED E4 | F16 | z4 A4 G4 E4 | (3F6 E2 D4 E8 | D4 G8 F4 | G4 A6 G2 F4- | F2 ED E4 F8- | F8 z8 | %30
w: _ e- * * *|a,|man- da- ta|me- * * a,|et ser- *|vat e- * *|* * * * a|_|
 z8 F8 | E16 | E4 F6 E2 D4 | E8 F8 | A16 | z8 A8 | c8 G4 A4- | A2 c2 =B4 c4 G4 | A4 A4 G4 F4 | %39
w: hic|est|qui di- li- git|me, hic|est,|hic|est qui di-|* li- git me, hic|est qui di- li-|
 F8 E8 | F4 F6 F2 E4 | F8 z4 C4- | C4 D4 E4 C4 | F4 D4 E4 F4 | G4 F2 E2 D4 D4 | C4 F8 E4 | A8 G8 | %47
w: git me,|qui di- li- git|me, di-|* cit Do- mi-|nus om- ni- po-|tens _ _ _ di-|cit Do- mi-|nus om-|
 A6 B2 c8 | A8 G4 A4 | F8 z4 F4- | F4 G4 A4 F4 | c4 F4 E8 | D8 C4 F4 | G4 A8 G4 | c4 B2 A2 G4 G4 | %55
w: ni- po- tens,|om- ni- po-|tens, di-|* cit Do- mi-|nus om- ni-|po- tens, di-|cit Do- mi-|nus _ _ _ om-|
 A2 B2 c2 B2 A2 G2 F2 A2 | G4 G4 F8 | z4 G8 F4- | F4 C4 D4 E4 | F4 C4 D6 D2 | C4 F4 F8 | %61
w: ni- * * * * * * *|* po- tens,|di- *|* cit Do- mi-|nus om- ni- po-|tens, di- cit|
 D4 E4 F6 G2 | A4 F4 G8 | F4 D4 E4 F4- | F4 E4 F8- | F16- | F16- | F16 |] %68
w: Do- * mi- *|nus om- ni-||* po- tens.|_|||
V:3
 C4 | [F,A]2 |[M:4/2] z16 | z16 | z16 | z16 | z8 C8 | D8 F8 | z4 F4 E4 C4 | D8 C4 F4 | %10
w: ||||||Qui|ha- bet|man- da- ta|me- a, et|
 D4 E4 F2 E2 D2 C2 | B,4 C8 =B,4 | C8 z4 C4- | C4 D8 F4- | F4 F4 E4 C4 | D8 C8- | C4 G,4 A,6 G,2 | %17
w: ser- vat e- * * *||a, qui|_ ha- bet|_ man- da- ta|me- a,|_ et ser- *|
 A,4 B,4 C8 | B,4 B,4 A,4 F,4 | G,6 A,2 B,4 A,2 G,2 | A,4 D8 C2 B,2 | A,8 B,8 | C4 D4 C8 | %23
w: * vat e-|a, man- da- ta|me- * * * *||a, et|ser- vat e-|
 F,4 F,4 A,8 | C8 z4 C4 | A,4 F,4 G,6 A,2 | B,8 G,4 A,4 | C2 B,2 A,2 G,2 F,4 F,4 | G,8 F,8 | %29
w: a, qui ha-|bet man-|da- ta me- *|* a, et|ser- * * * * vat|e- a|
 A,8 C8 | G,4 A,6 C2 =B,4 | C8 z4 G,4 | C8 z8 | z8 A,8 | C8 z8 | E4 F6 E2 D4 | C8 z4 F4 | %37
w: hic est|qui di- li- git|me, hic|est,|hic|est|qui di- li- git|me, qui|
 F4 G4 C8- | C4 F,4 G,4 A,4- | A,2 C2 =B,4 C8 | A,4 _B,6 A,2 G,4 | A,16 | z16 | z16 | z16 | %45
w: di- li- git|_ me, qui di-|* li- git me,|qui di- li- git|me,||||
 z8 z4 C4- | C4 D4 E4 C4 | F4 F4 E8 | F8 C4 F4- | F2 E2 D2 C2 B,4 B,4 | A,4 G,4 F,6 G,2 | %51
w: di-|* cit Do- mi-|nus om- ni-|po- tens, di-|* * * * * cit|Do- mi- nus _|
 A,4 B,4 C4 C4 | G,4 G,4 A,4 F,4 | C4 C4 D4 E4 | C4 F8 E4 | F2 G2 A2 G2 F2 E2 D4- | D2 C2 C8 =B,4 | %57
w: _ om- ni- po-|tens, om- ni- po-|tens. Di- cit Do-|mi- nus om-|ni- * * * * * *|* * * po-|
 C8 z8 | z16 | F,12 G,4 | A,4 F,4 B,4 D4- | D4 C2 B,2 A,4 B,4 | C8 G,8 | z4 B,4 A,8 | %64
w: tens,||di- cit|Do- mi- nus om-|* * * * ni-|po- tens,|om- ni-|
 G,8 F,4 B,4- | B,4 A,2 G,2 F,4 B,4 | A,4 D8 B,4- | B,4 A,4 A,8 |] %68
w: po- tens, Do-|* * * * mi-|nus om- ni-|* po- tens.|
V:4
 F,4 | [B,,C]2 |[M:4/2] z16 | z16 | z16 | z16 | z16 | z8 F,8 | A,8 C8 | z4 B,4 A,4 F,4 | %10
w: |||||||Qui|ha- bet|man- da- ta|
 G,8 F,4 F,4 | G,4 E,4 D,8 | C,4 F,4 D,4 E,4 | F,8 G,4 D,4 | D,2 E,2 F,2 G,2 A,8 | %15
w: me- a, et|ser- vat e-|a, man- da- ta|me- a, qui|ha- * * * *|
 G,4 B,4 A,6 G,2 | F,4 E,4 D,8- | D,8 C,8 | z16 | C,8 D,8- | D,8 F,8- | F,8 z8 | z8 C,8 | D,8 F,8 | %24
w: bet man- da- *|* ta me-|* a,||qui ha-|* bet,|_|qui|ha- bet|
 z4 F,4 E,4 C,4 | D,8 C,8 | G,8 E,4 F,4 | C,8 D,8 | C,8 z8 | F,8 F,8 | E,4 F,6 E,2 D,4 | C,16 | %32
w: man- da- ta|me- a,|et ser- vet|e- *|a|hic est|qui di- li- git|me,|
 z4 F,4 F,4 G,4 | C,8 F,8 | F,8 A,8- | A,8 z8 | z16 | z8 C,8 | F,8 E,4 F,4- | F,2 E,2 D,4 C,8 | %40
w: qui di- li-|git me,|hic est,|_||hic|est qui di-|* li- git me,|
 F,4 B,,6 F,2 C,4 | F,16- | F,8 z8 | z16 | z4 F,8 G,4 | A,4 F,4 C8 | F,8 E,8 | D,8 C,8 | z16 | %49
w: qui di- li- git|me,|_||di- cit|Do- mi- nus|om- ni-|po- tens.||
 z16 | z16 | z16 | z16 | z4 F,8 G,4 | A,4 F,4 C8 | F,16 | E,8 D,8 | C,4 C4 B,8 | A,8 G,8 | z16 | %60
w: ||||Di- cit|Do- mi- nus|om-|ni- po-|tens, om- ni-|po- tens,||
 z8 z4 B,,4- | B,,4 C,4 D,4 B,,4 | F,4 F,4 _E,8 | D,8 C,8- | C,8 z4 B,,4- | B,,4 C,4 D,4 B,,4 | %66
w: di-|* cit Do- mi-|nus om- ni-|po- tens,|_ di-|* cit Do- mi-|
 F,4 B,,4 B,6 B,2 | F,16 |] %68
w: nus om- ni- po-|tens.|

